svg/power_settings.svg

<svg xmlns="http://www.w3.org/2000/svg" viewBox="0 0 24 24"><path d="M15 24h2v-2h-2m1.56-17.56-1.45 1.45A5.97 5.97 0 0 1 18 11a6 6 0 0 1-6 6 6 6 0 0 1-6-6c0-2.17 1.16-4.06 2.88-5.12L7.44 4.44A7.96 7.96 0 0 0 4 11a8 8 0 0 0 8 8 8 8 0 0 0 8-8c0-2.72-1.36-5.12-3.44-6.56M13 2h-2v10h2m-2 12h2v-2h-2m-4 2h2v-2H7z"/></svg>

<?xml version="1.0" encoding="UTF-8"?><!DOCTYPE svg PUBLIC "-//W3C//DTD SVG 1.1//EN" "http://www.w3.org/Graphics/SVG/1.1/DTD/svg11.dtd"><svg xmlns="http://www.w3.org/2000/svg" xmlns:xlink="http://www.w3.org/1999/xlink" version="1.1" id="mdi-power-settings" width="24" height="24" viewBox="0 0 24 24"><path d="M15,24H17V22H15M16.56,4.44L15.11,5.89C16.84,6.94 18,8.83 18,11A6,6 0 0,1 12,17A6,6 0 0,1 6,11C6,8.83 7.16,6.94 8.88,5.88L7.44,4.44C5.36,5.88 4,8.28 4,11A8,8 0 0,0 12,19A8,8 0 0,0 20,11C20,8.28 18.64,5.88 16.56,4.44M13,2H11V12H13M11,24H13V22H11M7,24H9V22H7V24Z" /></svg>
